img/vk.svg

<svg width="46" height="46" viewBox="0 0 46 46" fill="none" xmlns="http://www.w3.org/2000/svg">
<path d="M22.6983 0C10.1628 0 0 10.1623 0 22.6983C0 35.2343 10.1628 45.3966 22.6983 45.3966C35.2338 45.3966 45.3966 35.2343 45.3966 22.6983C45.3966 10.1623 35.2338 0 22.6983 0ZM34.2121 25.1532C35.27 26.1865 36.3893 27.159 37.339 28.2991C37.7598 28.8035 38.1564 29.325 38.4582 29.9116C38.8892 30.748 38.5 31.6652 37.7514 31.7149L33.1012 31.714C31.9002 31.8134 30.9445 31.329 30.1387 30.5079C29.4955 29.8535 28.8987 29.1546 28.2792 28.4779C28.0261 28.2002 27.7595 27.9388 27.4418 27.733C26.8079 27.3206 26.2571 27.4469 25.8939 28.1092C25.5238 28.7831 25.4393 29.5298 25.404 30.2799C25.3534 31.3764 25.0227 31.6629 23.9225 31.7145C21.5716 31.8245 19.341 31.4679 17.2679 30.2827C15.439 29.2373 14.0235 27.7618 12.79 26.0913C10.388 22.8348 8.54849 19.2607 6.89564 15.5839C6.52364 14.7559 6.79579 14.3128 7.70929 14.2956C9.227 14.2664 10.7447 14.2701 12.2624 14.2942C12.8801 14.304 13.2888 14.6574 13.5261 15.2403C14.3463 17.2581 15.3517 19.178 16.6117 20.9586C16.9474 21.4328 17.2902 21.9055 17.7783 22.2404C18.317 22.6101 18.7275 22.4879 18.9816 21.8865C19.1441 21.5043 19.2143 21.0956 19.2495 20.686C19.3703 19.283 19.3847 17.8805 19.1757 16.483C19.0457 15.6085 18.5539 15.0438 17.6821 14.8785C17.2382 14.7944 17.3032 14.63 17.5191 14.3764C17.8939 13.938 18.245 13.6668 18.9468 13.6668L24.2007 13.6659C25.0287 13.8284 25.2145 14.2 25.3269 15.0341L25.3315 20.8727C25.3218 21.1954 25.4936 22.1521 26.0732 22.3635C26.5376 22.5167 26.8441 22.1442 27.1219 21.8503C28.3818 20.5132 29.2795 18.9351 30.0834 17.3018C30.4382 16.5815 30.7443 15.8361 31.0415 15.0893C31.2626 14.5371 31.6062 14.2654 32.2295 14.2747L37.2888 14.2808C37.4379 14.2808 37.5893 14.2822 37.737 14.3077C38.5897 14.4535 38.8233 14.8204 38.5595 15.6522C38.1443 16.9591 37.3376 18.0476 36.549 19.139C35.7038 20.3075 34.8024 21.4351 33.9655 22.6087C33.1964 23.6815 33.2572 24.2216 34.2121 25.1532Z" fill="#CACACA"/>
</svg>

<svg width="46" height="46" fill="none" xmlns="http://www.w3.org/2000/svg"><path d="M22.698 0C10.163 0 0 10.162 0 22.698s10.163 22.699 22.698 22.699c12.536 0 22.699-10.163 22.699-22.699C45.397 10.162 35.234 0 22.698 0zm11.514 25.153c1.058 1.034 2.177 2.006 3.127 3.146.42.505.817 1.026 1.12 1.613.43.836.041 1.753-.708 1.803l-4.65-.001c-1.2.1-2.156-.385-2.962-1.206-.643-.654-1.24-1.353-1.86-2.03-.253-.278-.52-.54-.837-.745-.634-.412-1.185-.286-1.548.376-.37.674-.455 1.42-.49 2.17-.05 1.097-.381 1.384-1.482 1.436-2.35.11-4.581-.247-6.654-1.432-1.829-1.046-3.245-2.521-4.478-4.192-2.402-3.256-4.242-6.83-5.894-10.507-.372-.828-.1-1.271.813-1.288 1.518-.03 3.036-.026 4.553-.002.618.01 1.027.363 1.264.946.82 2.018 1.826 3.938 3.086 5.719.335.474.678.947 1.166 1.281.539.37.95.248 1.204-.353.162-.383.232-.791.268-1.201.12-1.403.135-2.805-.074-4.203-.13-.875-.622-1.44-1.494-1.604-.444-.085-.379-.249-.163-.503.375-.438.726-.71 1.428-.71H24.2c.828.162 1.014.534 1.126 1.368l.004 5.839c-.01.322.163 1.28.742 1.49.465.154.771-.219 1.049-.513 1.26-1.337 2.157-2.915 2.961-4.548.355-.72.661-1.466.959-2.213.22-.552.564-.824 1.188-.814l5.059.006c.149 0 .3.001.448.027.853.146 1.086.512.822 1.344-.415 1.307-1.221 2.396-2.01 3.487-.845 1.169-1.747 2.296-2.584 3.47-.769 1.072-.708 1.613.247 2.544z" fill="#CACACA"/></svg>
